X:1
T:Ryle, 88.88.88 D
T:Ryle, 88.88.88 D
T:James McGranahan, 1878
T:Public Domain Courtesy of the Cyber Hymnal™
C:James McGranahan, 1878
Z:Public Domain
Z:Courtesy of the Cyber Hymnal™
%%score ( 1 2 ) ( 3 4 )
L:1/8
Q:1/4=85
M:3/4
K:C
V:1 treble 
V:2 treble 
V:3 bass 
V:4 bass 
V:1
 [EG][CE] [DF] | [EG]3 [Ec] [CE][DF] | [EG]3 [Ec] [DB][Ec] | [Fd]3 [Fd] [FA][FB] | %4
 [Ec]3 [EG] [CE][DF] | [EG]3 [Ec] [CE][DF] | [EG]3 [Ec] [DB][Dc] | [DB][CA] [B,G]2 [D^F]2 | %8
 [DG]3 [B,D] [B,D][CE] | [DF]3 [B,D] [CE][DF] | [EG]3 [CE] [DF][EG] | [FA]3 [Ac] [GB][FA] | %12
 [EG]3 [EG] [CE][DF] | [EG]3 [Ec] [CE][DF] | [EG]3 [Ec] [GB][FA] | [EG][Ec] [Fd]2 B2 | %16
 [Ec]3 G [GB][Ec] | [Gd]3 G [FA][FB] | [Ec]3 G [GB][Ec] | [Gd]3 G [FA][FB] | [Ec]3 [EG] [CE][DF] | %21
 [EG]3 [Ec] [CE][DF] | [EG]3 [Ec] [GB][FA] | [EG][Ec] [Fd]2 B2 | [Ec]3 |] %25
V:2
 x3 | x6 | x6 | x6 | x6 | x6 | x6 | x6 | x6 | x6 | x6 | x6 | x6 | x6 | x6 | x4 (DF) | x3 G x2 | %17
 x3 G x2 | x3 G x2 | x3 G x2 | x6 | x6 | x6 | x4 (DF) | x3 |] %25
V:3
 [C,C][C,G,] [C,G,] | [C,C]3 [C,G,] [C,G,][C,G,] | [C,C]3 [C,G,] [G,,G,][G,,G,] | %3
 [G,,G,]3 [G,,G,] [G,,G,][G,,G,] | [C,G,]3 [C,C] [C,G,][C,G,] | [C,C]3 [C,G,] [C,G,][C,G,] | %6
 [C,C]3 [C,G,] [D,G,][D,A,] | [D,G,][D,^F,] [D,G,]2 [D,C]2 | [G,,B,]3 [G,,G,] [G,,G,][G,,G,] | %9
 [G,,B,]3 [G,,G,] [G,,G,][G,,B,] | [C,C]3 [C,C] [C,C][C,C] | [F,C]3 [F,C] [F,C][F,C] | %12
 [C,C]3 [C,C] [C,G,][C,G,] | [C,C]3 [C,G,] [C,G,][C,G,] | [C,C]3 [C,G,] [C,G,][C,C] | %15
 [C,C][A,C] [F,A,]2 G,2 | [C,G,]3 [G,B,] [G,D][G,C] | [G,B,]3 [E,C] [F,C][D,G,] | %18
 [C,G,]3 [G,B,] [G,D][G,C] | [G,B,]3 [E,C] [F,C][D,G,] | [C,G,]3 [C,C] [C,G,][C,G,] | %21
 [C,C]3 [C,G,] [C,G,][C,G,] | [C,C]3 [C,G,] [C,G,][C,C] | [C,C][A,C] [F,A,]2 G,2 | [C,G,]3 |] %25
V:4
 x3 | x6 | x6 | x6 | x6 | x6 | x6 | x6 | x6 | x6 | x6 | x6 | x6 | x6 | x6 | x4 G,2 | x6 | x6 | x6 | %19
 x6 | x6 | x6 | x6 | x4 G,2 | x3 |] %25

